X:1
T: The Jolly Old Man
C:
R:Jig
Q:180
K:D
M:6/8
L:1/16
E2|A2G2A2 c4d2|e2d2c2 B2c2A2|G2F2G2 B4c2|d2g2e2 d2B2G2|A2G2A2 c4d2|e2d2c2 B2c2d2|e2c2A2 A2B2G2|A6 A4E2|
A2G2A2 c4d2|e2d2c2 B2c2A2|G2F2G2 B4c2|d2g2e2 d2B2G2|A2G2A2 c4d2|e2d2c2 B2c2d2|e2c2A2 A2B2G2|A6A4e2|
a2g2a2 b4a2|a2g2e2 e2d2B2|G2A2B2 d4d2|d2g2e2 d2B2A2|a2g2a2 b4a2|a2g2e2 e2d2B2|A4A2 A2B2G2|A6A4e2|
a2g2a2 b4a2|a2g2e2 e2d2B2|G2A2B2 d4d2|d2g2e2 d2B2A2|A2G2A2 c4d2|e2d2c2 B2c2d2|e2c2A2 A2B2G2|A6A4||
